X: 48
T:Nail that Catfish To a Tree
L:1/8
M:C
C:Steve Rosen
S:https://tunearch.org/wiki/Nail_that_Catfish_to_a_Tree
K:G
z2|"G"D2B2A2B2|"C"cB A2 "G"B4|"D"ABAG FGAB|"D"A2F2 E/F/E D2|
"G"D2B2A2B2|"C"cB A2 "G"B4|"D"ABAG FDEF|"G"G6:||
D2|"C"C4E4|C6 B2|"D"ABAG FGAB|A2F2 E/F/E D2|
"C"C4E4|c6B2|"D"ABAG FDEF|"G"G6 D2|
"C"C4E4|c6B2|"D"ABAG FGAB|A2F2 E/F/E D2|
"C"C4E4|c6 Bc|"D"d2c2B2A2|"G"G2 z2 G2||

